assets/images/payment-methods/eps.svg

<?xml version="1.0" standalone="no"?>
<!DOCTYPE svg PUBLIC "-//W3C//DTD SVG 1.0//EN" "http://www.w3.org/TR/2001/REC-SVG-20010904/DTD/svg10.dtd">
<!-- TODO GH-3543 change to EPS -->
<svg width="64" height="40" viewBox="0 0 64 40" fill="none" xmlns="http://www.w3.org/2000/svg">
	<path d="M0 4C0 1.79086 1.79086 0 4 0H60C62.2091 0 64 1.79086 64 4V36C64 38.2091 62.2091 40 60 40H4C1.79086 40 0 38.2091 0 36V4Z" fill="white"/>
	<path d="M48.9049 20.4744H45.1561C44.7392 20.4744 44.4 20.1422 44.4 19.7263C44.4 19.3104 44.7392 18.9443 45.1561 18.9443H50.8634V16.129H45.1561C43.1642 16.129 41.5435 17.753 41.5435 19.74C41.5435 21.7269 43.1642 23.3509 45.1561 23.3509H48.854C49.2709 23.3509 49.6102 23.6817 49.6102 24.0976C49.6102 24.5135 49.2709 24.8197 48.854 24.8197H40.9244C40.2512 26.105 39.5966 27.2066 38.2678 27.7574H48.9049C50.8634 27.7292 52.4654 26.0718 52.4654 24.1024C52.4654 22.1331 50.8634 20.5026 48.9049 20.4744Z" fill="#71706F"/>
	<path d="M34.5344 16.129C31.3572 16.129 28.7693 18.7323 28.7693 21.931V22.0534V34.0001H31.6459V27.7574H34.5284C37.7057 27.7574 40.2844 25.1196 40.2844 21.9208C40.2844 18.7221 37.7118 16.129 34.5344 16.129ZM34.5344 24.8197H31.6459V21.9208C31.6459 20.3009 32.9356 18.983 34.5344 18.983C36.1333 18.983 37.434 20.3009 37.434 21.9208C37.434 23.5408 36.1333 24.8197 34.5344 24.8197Z" fill="#71706F"/>
	<path d="M19.6627 27.7573C16.9429 27.7573 14.6562 25.8192 14.0375 23.2873C14.0375 23.2873 13.8587 22.4502 13.8587 21.8989C13.8587 21.3477 14.0279 20.5019 14.0279 20.5019C14.6512 17.9762 16.935 16.0955 19.6503 16.0955C22.8439 16.0955 25.4645 18.6916 25.4645 21.8851V23.2896H16.9797C17.4808 24.2688 18.4941 24.8196 19.6627 24.8196H27.2901L27.3005 16.5378C27.3005 15.303 26.2904 14.2928 25.0556 14.2928H14.245C13.0103 14.2928 12 15.2724 12 16.5072V27.3178C12 28.5526 13.0103 29.5934 14.245 29.5934H25.0556C26.1637 29.5934 27.0881 28.7978 27.2666 27.7573H19.6627Z" fill="#C8036F"/>
	<path d="M19.6503 18.8436C18.4862 18.8436 17.4738 19.5563 16.9708 20.4743H22.3299C21.8268 19.5563 20.8145 18.8436 19.6503 18.8436Z" fill="#C8036F"/>
	<path d="M24.5464 10.7774C24.5464 8.13889 22.3537 6 19.6488 6C16.9888 6 14.8254 8.06894 14.7543 10.647C14.7531 10.6579 14.7541 10.6684 14.7541 10.6796V12.1153C14.7541 12.2871 14.8939 12.4568 15.0699 12.4568H16.8718C17.0478 12.4568 17.2022 12.2871 17.2022 12.1153V10.7774C17.2022 9.45982 18.2995 8.38786 19.6502 8.38786C21.001 8.38786 22.0983 9.45982 22.0983 10.7774V12.1153C22.0983 12.2871 22.2411 12.4568 22.4171 12.4568H24.219C24.3951 12.4568 24.5464 12.2871 24.5464 12.1153V10.7774Z" fill="#C8036F"/>
</svg>

<svg xmlns="http://www.w3.org/2000/svg" width="64" height="40" fill="none"><path fill="#fff" d="M0 4a4 4 0 0 1 4-4h56a4 4 0 0 1 4 4v32a4 4 0 0 1-4 4H4a4 4 0 0 1-4-4V4Z"/><path fill="#71706F" d="M48.905 20.474h-3.749a.75.75 0 0 1-.756-.748c0-.416.34-.782.756-.782h5.707V16.13h-5.707a3.619 3.619 0 0 0-3.612 3.611c0 1.987 1.62 3.61 3.612 3.61h3.698a.75.75 0 0 1 .756.748c0 .416-.34.722-.756.722h-7.93c-.673 1.285-1.327 2.387-2.656 2.937h10.637c1.958-.028 3.56-1.685 3.56-3.655 0-1.969-1.602-3.6-3.56-3.628Z"/><path fill="#71706F" d="M34.534 16.129c-3.177 0-5.765 2.603-5.765 5.802V34h2.877v-6.243h2.882c3.178 0 5.756-2.637 5.756-5.836 0-3.199-2.572-5.792-5.75-5.792Zm0 8.69h-2.888v-2.898c0-1.62 1.29-2.938 2.888-2.938 1.6 0 2.9 1.318 2.9 2.938s-1.3 2.899-2.9 2.899Z"/><path fill="#C8036F" d="M19.663 27.757c-2.72 0-5.007-1.938-5.626-4.47 0 0-.178-.837-.178-1.388 0-.551.169-1.397.169-1.397.623-2.526 2.907-4.406 5.622-4.406 3.194 0 5.815 2.596 5.815 5.79v1.404H16.98c.5.979 1.514 1.53 2.683 1.53h7.627l.01-8.282a2.251 2.251 0 0 0-2.244-2.245H14.245c-1.235 0-2.245.98-2.245 2.214v10.81c0 1.236 1.01 2.276 2.245 2.276h10.81c1.109 0 2.033-.795 2.212-1.836h-7.604Z"/><path fill="#C8036F" d="M19.65 18.844c-1.164 0-2.176.712-2.68 1.63h5.36c-.503-.918-1.515-1.63-2.68-1.63ZM24.546 10.777C24.546 8.14 22.354 6 19.65 6c-2.66 0-4.824 2.069-4.895 4.647v1.468c0 .172.14.342.316.342h1.802c.176 0 .33-.17.33-.342v-1.338c0-1.317 1.097-2.39 2.448-2.39s2.448 1.073 2.448 2.39v1.338c0 .172.143.342.32.342h1.801c.176 0 .327-.17.327-.342v-1.338Z"/></svg>
